src/assets/listing-icon-white.svg

<svg width="22" height="27" viewBox="0 0 22 27" fill="none" xmlns="http://www.w3.org/2000/svg">
<path d="M12.375 16.2H6.875C6.51033 16.2 6.16059 16.3422 5.90273 16.5954C5.64487 16.8486 5.5 17.192 5.5 17.55C5.5 17.908 5.64487 18.2514 5.90273 18.5046C6.16059 18.7578 6.51033 18.9 6.875 18.9H12.375C12.7397 18.9 13.0894 18.7578 13.3473 18.5046C13.6051 18.2514 13.75 17.908 13.75 17.55C13.75 17.192 13.6051 16.8486 13.3473 16.5954C13.0894 16.3422 12.7397 16.2 12.375 16.2ZM17.875 2.7H16.2525C15.9688 1.91221 15.4439 1.22985 14.7497 0.746467C14.0555 0.263086 13.226 0.00234834 12.375 0H9.625C8.77395 0.00234834 7.94447 0.263086 7.25029 0.746467C6.5561 1.22985 6.03118 1.91221 5.7475 2.7H4.125C3.03098 2.7 1.98177 3.1267 1.20818 3.88622C0.434597 4.64574 0 5.67587 0 6.75V22.95C0 24.0241 0.434597 25.0543 1.20818 25.8138C1.98177 26.5733 3.03098 27 4.125 27H17.875C18.969 27 20.0182 26.5733 20.7918 25.8138C21.5654 25.0543 22 24.0241 22 22.95V6.75C22 5.67587 21.5654 4.64574 20.7918 3.88622C20.0182 3.1267 18.969 2.7 17.875 2.7ZM8.25 4.05C8.25 3.69196 8.39487 3.34858 8.65273 3.09541C8.91059 2.84223 9.26033 2.7 9.625 2.7H12.375C12.7397 2.7 13.0894 2.84223 13.3473 3.09541C13.6051 3.34858 13.75 3.69196 13.75 4.05V5.4H8.25V4.05ZM19.25 22.95C19.25 23.308 19.1051 23.6514 18.8473 23.9046C18.5894 24.1578 18.2397 24.3 17.875 24.3H4.125C3.76033 24.3 3.41059 24.1578 3.15273 23.9046C2.89487 23.6514 2.75 23.308 2.75 22.95V6.75C2.75 6.39196 2.89487 6.04858 3.15273 5.79541C3.41059 5.54223 3.76033 5.4 4.125 5.4H5.5V6.75C5.5 7.10804 5.64487 7.45142 5.90273 7.70459C6.16059 7.95777 6.51033 8.1 6.875 8.1H15.125C15.4897 8.1 15.8394 7.95777 16.0973 7.70459C16.3551 7.45142 16.5 7.10804 16.5 6.75V5.4H17.875C18.2397 5.4 18.5894 5.54223 18.8473 5.79541C19.1051 6.04858 19.25 6.39196 19.25 6.75V22.95ZM15.125 10.8H6.875C6.51033 10.8 6.16059 10.9422 5.90273 11.1954C5.64487 11.4486 5.5 11.792 5.5 12.15C5.5 12.508 5.64487 12.8514 5.90273 13.1046C6.16059 13.3578 6.51033 13.5 6.875 13.5H15.125C15.4897 13.5 15.8394 13.3578 16.0973 13.1046C16.3551 12.8514 16.5 12.508 16.5 12.15C16.5 11.792 16.3551 11.4486 16.0973 11.1954C15.8394 10.9422 15.4897 10.8 15.125 10.8Z" fill="white"/>
</svg>

<svg width="22" height="27" fill="none" xmlns="http://www.w3.org/2000/svg"><path d="M12.375 16.2h-5.5c-.365 0-.714.142-.972.395a1.338 1.338 0 00-.403.955c0 .358.145.701.403.955.258.253.607.395.972.395h5.5c.365 0 .714-.142.972-.395.258-.254.403-.597.403-.955s-.145-.701-.403-.955a1.388 1.388 0 00-.972-.395zm5.5-13.5h-1.622A4.059 4.059 0 0014.75.746 4.177 4.177 0 0012.375 0h-2.75A4.177 4.177 0 007.25.746 4.059 4.059 0 005.747 2.7H4.125a4.164 4.164 0 00-2.917 1.186A4.013 4.013 0 000 6.75v16.2c0 1.074.435 2.104 1.208 2.864A4.164 4.164 0 004.125 27h13.75a4.164 4.164 0 002.917-1.186A4.013 4.013 0 0022 22.95V6.75a4.013 4.013 0 00-1.208-2.864A4.164 4.164 0 0017.875 2.7zM8.25 4.05c0-.358.145-.701.403-.955.258-.253.607-.395.972-.395h2.75c.365 0 .714.142.972.395.258.254.403.597.403.955V5.4h-5.5V4.05zm11 18.9c0 .358-.145.701-.403.955a1.388 1.388 0 01-.972.395H4.125c-.365 0-.714-.142-.972-.395a1.338 1.338 0 01-.403-.955V6.75c0-.358.145-.701.403-.955.258-.253.607-.395.972-.395H5.5v1.35c0 .358.145.701.403.955.258.253.607.395.972.395h8.25c.365 0 .714-.142.972-.395a1.34 1.34 0 00.403-.955V5.4h1.375c.365 0 .714.142.972.395.258.254.403.597.403.955v16.2zM15.125 10.8h-8.25c-.365 0-.714.142-.972.395a1.338 1.338 0 00-.403.955c0 .358.145.701.403.955.258.253.607.395.972.395h8.25c.365 0 .714-.142.972-.395.258-.254.403-.597.403-.955s-.145-.701-.403-.955a1.388 1.388 0 00-.972-.395z" fill="#fff"/></svg>
